X: 43631
T: Zeak Waltz, The
R: hornpipe
M: 4/4
K: Gmajor
|:(3DEF|G>FG>A G2 B>A|G>FG>A G2 A>B|c>BA>G F>GA>G|F>ED>^C D2 (3DEF|
G>FG>A G2 B>A|G>FG>A G2 A>B|c>BA>G F>GA>F|G2 G2 G2:|
|:(3GAB|c2 A2 A>cA>c|B2 G2 G>BG>B|A>BA>G F>GA>G|F>ED>^C D2 (3GAB|
c2 A2 A>cA>c|B2 G2 G>BG>B|A>BA>G F>GA>F|G2 G2 G2:|

